img/header/lupa.svg

<svg width="24" height="24" viewBox="0 0 24 24" fill="none" xmlns="http://www.w3.org/2000/svg">
<path d="M17.1527 15.0944H16.0618L15.6844 14.717C17.0292 13.1595 17.8387 11.1355 17.8387 8.9194C17.8387 3.99314 13.8456 0 8.9194 0C3.9932 0 0 3.99314 0 8.9194C0 13.8457 3.99314 17.8388 8.9194 17.8388C11.1355 17.8388 13.1595 17.0292 14.717 15.6913L15.0944 16.0687V17.1527L21.9554 24L24 21.9554L17.1527 15.0944ZM8.9194 15.0944C5.50948 15.0944 2.74445 12.3293 2.74445 8.9194C2.74445 5.50948 5.50948 2.74445 8.9194 2.74445C12.3293 2.74445 15.0944 5.50948 15.0944 8.9194C15.0944 12.3293 12.3293 15.0944 8.9194 15.0944Z" fill="#EB5757"/>
</svg>

<svg width="24" height="24" fill="none" xmlns="http://www.w3.org/2000/svg"><path d="M17.153 15.094h-1.091l-.378-.377a8.835 8.835 0 002.155-5.798A8.92 8.92 0 008.919 0 8.92 8.92 0 000 8.92a8.92 8.92 0 008.92 8.919c2.216 0 4.24-.81 5.797-2.148l.377.378v1.084L21.955 24 24 21.955l-6.847-6.86zm-8.234 0a6.176 6.176 0 11.002-12.35 6.176 6.176 0 01-.002 12.35z" fill="#EB5757"/></svg>
